dist/images/arrows.svg

<svg width="48" height="24" viewBox="0 0 48 24" fill="none" xmlns="http://www.w3.org/2000/svg">
<path fill-rule="evenodd" clip-rule="evenodd" d="M16 0L14 1.50001L3.33332 9.5001L0 12.0001L3.33334 14.5001L14 22.5L16 24V19.549L8.64942 14H39.3506L32 19.549V24L34 22.5L44.6667 14.5001L48 12.0001L44.6667 9.5001L34 1.50001L32 0V4.45093L39.3507 10H8.64928L16 4.45093V0Z" fill="black"/>
</svg>

<svg width="48" height="24" fill="none" xmlns="http://www.w3.org/2000/svg"><path fill-rule="evenodd" clip-rule="evenodd" d="M16 0l-2 1.5-10.667 8L0 12l3.333 2.5L14 22.5l2 1.5v-4.451L8.65 14h30.7L32 19.549V24l2-1.5 10.667-8L48 12l-3.333-2.5L34 1.5 32 0v4.45L39.35 10H8.65L16 4.45V0z" fill="#000"/></svg>
